templates/main/source/images/Подогреватели-посуды.svg

<svg xmlns="http://www.w3.org/2000/svg" xmlns:xlink="http://www.w3.org/1999/xlink" width="24" height="19" viewBox="0 0 24 19">
  <defs>
    <circle id="подогреватели-посуды-b" cx="11" cy="6" r="4"/>
    <filter id="подогреватели-посуды-a" width="225%" height="225%" x="-62.5%" y="-50%" filterUnits="objectBoundingBox">
      <feOffset dy="1" in="SourceAlpha" result="shadowOffsetOuter1"/>
      <feGaussianBlur in="shadowOffsetOuter1" result="shadowBlurOuter1" stdDeviation="1.5"/>
      <feComposite in="shadowBlurOuter1" in2="SourceAlpha" operator="out" result="shadowBlurOuter1"/>
      <feColorMatrix in="shadowBlurOuter1" values="0 0 0 0 0.729411765   0 0 0 0 0.0705882353   0 0 0 0 0.0705882353  0 0 0 0.25 0"/>
    </filter>
  </defs>
  <g fill="none" fill-rule="evenodd">
    <path stroke="#000" d="M23.3596118,11.5 L0.640388203,11.5 L2.3903882,18.5 L21.6096118,18.5 L23.3596118,11.5 Z"/>
    <rect width="19" height="11" x="2.5" y=".5" stroke="#000"/>
    <path fill="#1A1A1A" d="M18,16 L6,16 L6,14 L7,14 L7,15 L17,15 L17,14 L18,14 L18,16 Z"/>
    <circle cx="14" cy="6" r="2.5" fill="#E794A2" stroke="#BA1212"/>
    <use fill="#000" filter="url(#подогреватели-посуды-a)" xlink:href="#подогреватели-посуды-b"/>
    <circle cx="11" cy="6" r="3.5" fill="#E794A2" stroke="#BA1212" stroke-linejoin="square"/>
    <circle cx="11" cy="6" r="2" fill="#BA1212"/>
    <rect width="1" height="8" x="5" y="3" fill="#000" opacity=".152"/>
    <rect width="1" height="8" x="18" y="3" fill="#000" opacity=".152"/>
  </g>
</svg>

<svg xmlns="http://www.w3.org/2000/svg" xmlns:xlink="http://www.w3.org/1999/xlink" width="24" height="19" viewBox="0 0 24 19"><defs><filter id="подогреватели-посуды-a" width="225%" height="225%" x="-62.5%" y="-50%" filterUnits="objectBoundingBox"><feOffset dy="1" in="SourceAlpha" result="shadowOffsetOuter1"/><feGaussianBlur in="shadowOffsetOuter1" result="shadowBlurOuter1" stdDeviation="1.5"/><feComposite in="shadowBlurOuter1" in2="SourceAlpha" operator="out" result="shadowBlurOuter1"/><feColorMatrix in="shadowBlurOuter1" values="0 0 0 0 0.729411765 0 0 0 0 0.0705882353 0 0 0 0 0.0705882353 0 0 0 0.25 0"/></filter><circle id="подогреватели-посуды-b" cx="11" cy="6" r="4"/></defs><g fill="none" fill-rule="evenodd"><path stroke="#000" d="M23.36 11.5H.64l1.75 7h19.22l1.75-7zM2.5.5h19v11h-19z"/><path fill="#1A1A1A" d="M18 16H6v-2h1v1h10v-1h1v2z"/><circle cx="14" cy="6" r="2.5" fill="#E794A2" stroke="#BA1212"/><use fill="#000" filter="url(#подогреватели-посуды-a)" xlink:href="#подогреватели-посуды-b"/><circle cx="11" cy="6" r="3.5" fill="#E794A2" stroke="#BA1212" stroke-linejoin="square"/><circle cx="11" cy="6" r="2" fill="#BA1212"/><path fill="#000" opacity=".152" d="M5 3h1v8H5zm13 0h1v8h-1z"/></g></svg>
